X: 11112
T: the MAIDS OF ARROCHAR
Q: "Slow with Express"
%R: air, jig, waltz
B: "Edinburgh Repository of Music" v.1 p.111 #2
F: http://digital.nls.uk/special-collections-of-printed-music/pageturner.cfm?id=87776133
Z: 2015 John Chambers <jc:trillian.mit.edu>
M: 6/8
L: 1/8
K: D
D/E/ |\
{DE}F>ED {DE}F>ED | (FA)A A2d/>e/ | f>ed {de}f>ed | {f}e2d B2{c}d |\
{G2}F>ED {DE}F>ED | (FA)A A2d/>e/ | (fdA) BFA | {F}E2D D2 :|
|: A/G/ |\
(FA).B (FA).B | Td>ef/e/ dBA | (FA).B (FA).f | {f}e2d B2A |\
(~df.a) fdA | (B/A/)(B/c/).d/.B/ AFD | (FdA) BFA | {F}TE2D D2 :|
